!!!COM: Palestrina, Giovanni Perluigi da
!!!OPR: Fratres Ego Enim Accepi
!!!OTL: Benedictus
**kern	**kern	**kern	**kern
*Itenor	*Icalto	*Icalto	*Icant
!Tenor	!Altus 2	!Altus 1	!Cantus
*clefGv2	*clefG2	*clefG2	*clefG2
*k[b-]	*k[b-]	*k[b-]	*k[b-]
*G:dor	*G:dor	*G:dor	*G:dor
*M4/2	*M4/2	*M4/2	*M4/2
=1	=1	=1	=1
0r	0a	0r	0r
=2	=2	=2	=2
0r	1d	0r	1r
.	1g	.	[1dd
=3	=3	=3	=3
0r	2g	0r	1dd]
.	2f	.	.
.	2.b-	.	1g
.	4a	.	.
=4	=4	=4	=4
0r	4g	0r	1dd
.	4f	.	.
.	2.g	.	.
.	.	.	2dd
.	4f	.	.
.	2e	.	2cc
=5	=5	=5	=5
0d	2d	0r	2.ff
.	2a	.	.
.	.	.	4ee
.	2f	.	4dd
.	.	.	4cc
.	[2b-	.	[2dd
=6	=6	=6	=6
1G	4b-]	0r	4dd]
.	4a	.	4cc
.	1g	.	2b-
1d	.	.	[1a
.	4f	.	.
.	4e	.	.
=7	=7	=7	=7
2d	2f	1r	1a]
2c	2e	.	.
2.f	1d	[1a	2r
.	.	.	2dd
4e	.	.	.
=8	=8	=8	=8
4d	2r	1a]	2dd
4c	.	.	.
2.d	2d	.	2.ff
.	[1f	1d	.
4c	.	.	4ee
2B-	.	.	[2dd
=9	=9	=9	=9
1A	2f]	1a	2dd]
.	2e	.	2cc
1r	2d	2a	2.ff
.	2d	2f	.
.	.	.	4ee
=10	=10	=10	=10
0r	2.g	2.b-	4dd
.	.	.	4cc
.	.	.	2dd
.	4f	4a	.
.	4g	4g	2.b-
.	4a	4f	.
.	[2b-	[2g	.
.	.	.	4a
=11	=11	=11	=11
0r	4b-]	4g]	1g
.	4a	4f	.
.	1g	2e-	.
.	.	1d	1a
.	2f#	.	.
=12	=12	=12	=12
1r	1g	2r	2.b-
.	.	1g	.
.	.	.	8a
.	.	.	8g
[1d	1r	.	1a
.	.	2f	.
=13	=13	=13	=13
1d]	0r	2b-	1.dd
.	.	2a	.
1G	.	2b-	.
.	.	4a	2dd
.	.	4g	.
=14	=14	=14	=14
1d	0a	4a	1ff
.	.	4g	.
.	.	4f	.
.	.	4e	.
2d	.	2d	2ff
2c	.	2A	2ee
=15	=15	=15	=15
2.f	1d	1a	[0dd
4e	.	.	.
4d	[1a	2.f	.
4c	.	.	.
[2d	.	.	.
.	.	4e	.
=16	=16	=16	=16
4d]	2a]	1d	1dd]
4c	.	.	.
2B-	2g	.	.
[1A	2.cc	1a	2.ee
.	4b-	.	4dd
=17	=17	=17	=17
2A]	4a	1.cc	2ee
.	4g	.	.
2A	2.a	.	2ff
2c	.	.	2ee
.	4g	.	.
2d	2f	2b-	[2dd
=18	=18	=18	=18
1A	1e	1a	2dd]
.	.	.	2cc#
1d	1d	2f#	2dd
.	.	2f#	2a
=19	=19	=19	=19
2r	0r	2.g	2.b-
2G	.	.	.
.	.	4g	4b-
2.d	.	2.f	1a
4c	.	4e	.
=20	=20	=20	=20
2B-	2r	1d	2r
2B-	2b-	.	2dd
2.f	2.a	1r	2.cc
4g	4g	.	4b-
=21	=21	=21	=21
2d	2f	0r	2a
4G	2.b-	.	4dd
4A	.	.	4cc
4B-	.	.	4dd
4c	4a	.	4ee
4d	4f	.	[2ff
4e	4g	.	.
=22	=22	=22	=22
2.f	2.a	0r	4ff]
.	.	.	4ee
.	.	.	4cc
8e	8g	.	4dd
8d	8f	.	.
2c	4g	.	4ee-
.	4a	.	4cc
2B-	[2b-	.	[2dd
=23	=23	=23	=23
1G	4b-]	1r	4dd]
.	4a	.	4cc
.	2.g	.	2.b-
1d	.	2r	.
.	4f	.	4a
.	4f	2d	[2dd
.	8e	.	.
.	8d	.	.
=24	=24	=24	=24
1r	2e	2.g	2dd]
.	2e	.	2cc#
.	.	4g	.
2r	2d	1f	[1dd
2d	2a	.	.
=25	=25	=25	=25
2.g	2.b-	1r	1dd]
4g	4b-	.	.
2f	2a	1cc	2r
2F	2a	.	2ff
=26	=26	=26	=26
2.c	2.g	2.cc	2.ee
4d	4f	4b-	4dd
2A	2e	2a	2cc
4F	[2f	[2cc	4a
4G	.	.	4b-
=27	=27	=27	=27
4A	2f]	4cc]	4cc
4B-	.	8b-	4dd
.	.	8a	.
4c	4e	2g	4ee
4d	4d	.	4ff
2e	2c	2g	2gg
[2f	2A	2a	2cc
=28	=28	=28	=28
4f]	1B-	4d	1dd
4e	.	4e	.
1d	.	4f	.
.	.	4d	.
.	2A	2e	2r
2c	[2a	2e	2a
=29	=29	=29	=29
1B-	2a]	2f	2.dd
.	2g	4e	.
.	.	4d	4dd
1A	2.a	1e	1cc
.	4g	.	.
=30	=30	=30	=30
2.d	2f	2r	2a
.	1f	2d	2b-
4d	.	.	.
1c	.	2.g	2.cc
.	2e	.	.
.	.	4g	4b-
=31	=31	=31	=31
2r	2f	1f	2a
2B-	2b-	.	2dd
2.f	2.a	1r	2.cc
4g	4g	.	4b-
=32	=32	=32	=32
2d	2f	2r	2a
2G	2g	2b-	2dd
[1d	2.f	2.a	[1dd
.	4g	4g	.
=33	=33	=33	=33
2d]	2a	2f	2dd]
2G	1b-	4g	2dd
.	.	4f	.
4B-	.	4d	1dd
4c	.	4e	.
4d	[2a	4f	.
4e	.	4g	.
=34	=34	=34	=34
1f	4a]	4a	2.cc
.	4g	4b-	.
.	4a	2.cc	.
.	4b-	.	4dd
1c	2.cc	.	1ee-
.	.	4b-	.
.	.	4a	.
.	4b-	4g	.
=35	=35	=35	=35
0d	2a	2f#	0dd
.	1g	2g	.
.	.	1a	.
.	2f#	.	.
=36	=36	=36	=36
1G	2.g	2.b-	1dd
.	4g	4b-	.
[1d	[1f#	[1a	[1dd
=37	=37	=37	=37
1d]	1f#]	1a]	1dd]
*-	*-	*-	*-
!! Hosanna
**kern	**kern	**kern	**kern	**kern	**kern	**kern	**kern
*Ibass	*Itenor	*Icalto	*Icant	*Ibass	*Itenor	*Icalto	*Icant
!Bassus	!Tenor	!Altus	!Cantus	!Bassus	!Tenor	!Altus	!Cantus
*clefF4	*clefGv2	*clefG2	*clefG2	*clefF4	*clefGv2	*clefG2	*clefG2
*k[b-]	*k[b-]	*k[b-]	*k[b-]	*k[b-]	*k[b-]	*k[b-]	*k[b-]
*G:dor	*G:dor	*G:dor	*G:dor	*G:dor	*G:dor	*G:dor	*G:dor
*M4/2	*M4/2	*M4/2	*M4/2	*M4/2	*M4/2	*M4/2	*M4/2
=38	=38	=38	=38	=38	=38	=38	=38
0r	0r	0r	0r	0r	1d	1a	1r
.	.	.	.	.	1g	[1b-	2r
.	.	.	.	.	.	.	2g
=39	=39	=39	=39	=39	=39	=39	=39
0r	0r	0r	0r	0r	2f	2b-]	1.dd
.	.	.	.	.	2g	2b-	.
.	.	.	.	.	2f	2a	.
.	.	.	.	.	2d	2f	2dd
=40	=40	=40	=40	=40	=40	=40	=40
0r	0r	0r	0r	0r	1.f	1.a	2cc
.	.	.	.	.	.	.	2a
.	.	.	.	.	.	.	[1cc
.	.	.	.	.	4e	4g	.
.	.	.	.	.	4d	4f	.
=41	=41	=41	=41	=41	=41	=41	=41
0r	0r	0r	0r	0r	1c	4e	2cc]
.	.	.	.	.	.	4f	.
.	.	.	.	.	.	1g	2b-
.	.	.	.	.	[1d	.	1a
.	.	.	.	.	.	2f	.
=42	=42	=42	=42	=42	=42	=42	=42
0r	0r	0r	0r	1G	1d]	1b-	2g
.	.	.	.	.	.	.	2dd
.	.	.	.	[1d	2r	1a	[1ff
.	.	.	.	.	2d	.	.
=43	=43	=43	=43	=43	=43	=43	=43
0r	0r	0r	0r	2d]	1.a	2r	2ff]
.	.	.	.	2d	.	2f	2ff
.	.	.	.	2c	.	[1cc	2ee
.	.	.	.	2A	2a	.	4cc
.	.	.	.	.	.	.	4dd
=44	=44	=44	=44	=44	=44	=44	=44
0r	0r	0r	0r	2.c	2g	2cc]	4ee
.	.	.	.	.	.	.	4ff
.	.	.	.	.	2e	2cc	1gg
.	.	.	.	8B-	.	.	.
.	.	.	.	8A	.	.	.
.	.	.	.	2.G	2.g	[1b-	.
.	.	.	.	.	.	.	[2dd
.	.	.	.	4A	8f	.	.
.	.	.	.	.	8e	.	.
=45	=45	=45	=45	=45	=45	=45	=45
1r	0r	2r	1r	4B-	1d	2b-]	4dd]
.	.	.	.	4c	.	.	4ee
.	.	2d	.	1d	.	2a	4ff
.	.	.	.	.	.	.	4dd
1A	.	[1a	1ee	.	2A	1a	1ee
.	.	.	.	2c#	[2a	.	.
=46	=46	=46	=46	=46	=46	=46	=46
1.d	2r	2a]	1.ff	1d	2a]	2.f	0dd
.	2d	2a	.	.	1f	.	.
.	.	.	.	.	.	4e	.
.	[1a	4f	.	1D	.	1d	.
.	.	4g	.	.	.	.	.
2d	.	4a	2ff	.	2d	.	.
.	.	4b-	.	.	.	.	.
=47	=47	=47	=47	=47	=47	=47	=47
2c	2a]	1.cc	2ee	0r	0r	0r	0r
2A	2a	.	2cc	.	.	.	.
1c	2g	.	1ee	.	.	.	.
.	2e	2cc	.	.	.	.	.
=48	=48	=48	=48	=48	=48	=48	=48
4G	4g	1b-	1.dd	0r	0r	0r	0r
4A	4f	.	.	.	.	.	.
4B-	4d	.	.	.	.	.	.
4c	4e	.	.	.	.	.	.
1d	4f	2a	.	.	.	.	.
.	4g	.	.	.	.	.	.
.	[2a	2f	2a	.	.	.	.
=49	=49	=49	=49	=49	=49	=49	=49
1G	4a]	1b-	1dd	1r	0r	1r	0r
.	4g	.	.	.	.	.	.
.	1g	.	.	.	.	.	.
2.d	.	1a	1dd	1D	.	2r	.
.	2f	.	.	.	.	2a	.
4c	.	.	.	.	.	.	.
=50	=50	=50	=50	=50	=50	=50	=50
2B-	2.g	1g	[0dd	1.G	2r	1.b-	1r
4G	.	.	.	.	2G	.	.
4A	8f	.	.	.	.	.	.
.	8e	.	.	.	.	.	.
4B-	2d	4G	.	.	[1d	.	1dd
4c	.	4A	.	.	.	.	.
2d	2G	4B-	.	2G	.	2b-	.
.	.	4c	.	.	.	.	.
=51	=51	=51	=51	=51	=51	=51	=51
1D	0A	2d	1dd]	2F	2d]	2a	1.ff
.	.	1a	.	2D	2d	2f	.
2r	.	.	1r	1F	2c	1a	.
2A	.	[2cc	.	.	4c	.	2ff
.	.	.	.	.	4d	.	.
=52	=52	=52	=52	=52	=52	=52	=52
1.c	2r	2cc]	1r	0C	4e	1g	2ee
.	.	.	.	.	4f	.	.
.	1e	2cc	.	.	1g	.	2cc
.	.	2g	2r	.	.	2.e	1ee
2c	[2g	2g	2g	.	2c	.	.
.	.	.	.	.	.	4f	.
=53	=53	=53	=53	=53	=53	=53	=53
2B-	2g]	0b-	1.dd	0r	1G	1g	1dd
2G	2g	.	.	.	.	.	.
1B-	2f	.	.	.	1r	1r	1r
.	2d	.	2dd	.	.	.	.
=54	=54	=54	=54	=54	=54	=54	=54
2.F	4f	2a	2cc	0r	1r	0r	0r
.	4g	.	.	.	.	.	.
.	2.a	2.f	2a	.	.	.	.
4G	.	.	.	.	.	.	.
2.A	.	.	[1cc	.	2r	.	.
.	4g	4e	.	.	.	.	.
.	[2f	2a	.	.	2F	.	.
4B-	.	.	.	.	.	.	.
=55	=55	=55	=55	=55	=55	=55	=55
1c	2f]	1g	1cc]	1C	1.c	2r	2r
.	2e	.	.	.	.	2g	1cc
2.F	2f	1f	2cc	[1F	.	1a	.
.	2c	.	[2a	.	2c	.	[2ff
4G	.	.	.	.	.	.	.
=56	=56	=56	=56	=56	=56	=56	=56
2A	2.f	2r	4a]	2F]	2A	2a	2ff]
.	.	.	4b-	.	.	.	.
2A	.	2c	2.cc	2F	1F	2a	2cc
.	4f	.	.	.	.	.	.
1B-	2f	1f	.	2D	.	2f	2dd
.	.	.	4b-	.	.	.	.
.	2d	.	[2a	2BB-	[2f	4d	2ff
.	.	.	.	.	.	4e	.
=57	=57	=57	=57	=57	=57	=57	=57
1F	1c	1f	2a]	1F	4f]	4f	1ff
.	.	.	.	.	4e	4g	.
.	.	.	2a	.	2c	2a	.
1r	[1B-	1d	2b-	2BB-	2d	1f	2ff
.	.	.	[2dd	2BB-	2B-	.	2b-
=58	=58	=58	=58	=58	=58	=58	=58
1BB-	1B-]	1f	2dd]	2B-	1d	2r	2b-
.	.	.	1ff	2B-	.	2d	2b-
1F	2r	[1a	.	2A	4c	[1f	1cc
.	.	.	.	.	4B-	.	.
.	[2A	.	2ff	2F	4A	.	.
.	.	.	.	.	4G	.	.
=59	=59	=59	=59	=59	=59	=59	=59
1F	2A]	2a]	2.cc	1A	1F	2f]	1a
.	1c	2f	.	.	.	2f	.
.	.	.	4dd	.	.	.	.
[1C	.	2g	4ee	1c	2r	2.e	1g
.	.	.	4ff	.	.	.	.
.	2c	2e	[2gg	.	4c	.	.
.	.	.	.	.	4d	4d	.
=60	=60	=60	=60	=60	=60	=60	=60
1C]	1.G	0g	2gg]	1c	4e	4c	1cc
.	.	.	.	.	4f	4d	.
.	.	.	2g	.	1g	2e	.
1G	.	.	2.b-	1G	.	2d	[1dd
.	2B-	.	.	.	[2d	[2g	.
.	.	.	4cc	.	.	.	.
=61	=61	=61	=61	=61	=61	=61	=61
0D	0A	1a	1dd	0d	4d]	2g]	2dd]
.	.	.	.	.	4e	.	.
.	.	.	.	.	4f#	4f#	2a
.	.	.	.	.	4g	4e	.
.	.	1d	1a	.	2a	1f#	1dd
.	.	.	.	.	[2d	.	.
=62	=62	=62	=62	=62	=62	=62	=62
[0G	[0G	[0d	[0b	[0G	4d]	[0g	[0dd
.	.	.	.	.	4c	.	.
.	.	.	.	.	4B	.	.
.	.	.	.	.	4A	.	.
.	.	.	.	.	1B	.	.
=63	=63	=63	=63	=63	=63	=63	=63
0G]	0G]	0d]	0b]	0G]	0B	0g]	0dd]
==	==	==	==	==	==	==	==
*-	*-	*-	*-	*-	*-	*-	*-
!!!CDT: 1525/^1526/-1594/2/2
!!!OCY: Italia
!!!AGN: Mass (Parody)
!!!AST: renaissance, vocal
!!!ASW: Motet (Palestrina)
!!!PWK: Masses, Book 8vce
!!!RNB: Cadence finals: D
!!!YOR: Le Opere Complete, v. 30, p. 110
!!!YOO: Rome, Italy: Fratelli Scalera
!!!END: 1992//
!!!EED: John Miller
!!!YEC: Copyright 2000, John Miller
!!!YEN: United States of America
!!!YEM: Rights to all derivative electronic formats reserved.
!!!YEM: Refer to licensing agreement for further details.
!!!YEM: This file must be accompanied by the licensing agreement.
!!!YEM: A copy of the licensing agreement may be found at http://www.music-cog.ohio-state.edu/HumdrumDatabases/Palestrina/license.txt
!!!EMD: converted to Humdrum by Bret Aarden
